images/rr.svg

<?xml version="1.0" encoding="UTF-8" standalone="no"?><!DOCTYPE svg PUBLIC "-//W3C//DTD SVG 1.1//EN" "http://www.w3.org/Graphics/SVG/1.1/DTD/svg11.dtd"><svg width="100%" height="100%" viewBox="0 0 57 57" version="1.1" xmlns="http://www.w3.org/2000/svg" xmlns:xlink="http://www.w3.org/1999/xlink" xml:space="preserve" xmlns:serif="http://www.serif.com/" style="fill-rule:evenodd;clip-rule:evenodd;"><circle id="cir_1" cx="28.5" cy="28.5" r="24.5" style="fill:#fafafa;"/><circle id="cir_2" cx="28.5" cy="28.5" r="22.05" style="fill:#fafafa;stroke:#f00;stroke-width:2px;"/><path d="M29.81,12.734c-0.267,0.267 -0.237,0.594 0.119,1.647c0.163,0.49 0.341,1.455 0.386,2.122c0.074,1.024 0.045,1.232 -0.148,1.306c-0.134,0.045 -0.95,0.178 -1.811,0.267c-1.84,0.223 -2.152,0.371 -1.899,0.92c0.296,0.653 0.994,0.891 2.537,0.906l1.366,0l0,1.009c0,0.861 -0.045,1.009 -0.253,1.009c-0.148,0.015 -0.92,0.104 -1.736,0.208c-1.35,0.178 -1.514,0.178 -2.182,-0.075c-1.053,-0.4 -1.736,-0.371 -1.944,0.09c-0.133,0.311 -0.103,0.445 0.223,0.92c0.519,0.756 0.638,1.306 1.009,4.496c0.371,3.28 0.623,3.933 1.469,3.933c0.416,0 0.549,-0.074 0.713,-0.416c0.148,-0.311 0.296,-0.4 0.667,-0.4c0.268,0 0.831,-0.045 1.262,-0.09l0.772,-0.103l0,2.077l-2.33,0.312c-1.291,0.178 -2.85,0.326 -3.458,0.341c-1.543,0 -2.538,0.193 -2.775,0.52c-0.163,0.222 -0.193,-0.149 -0.193,-2.405c0.015,-2.418 0.089,-3.487 0.371,-5.401c0.104,-0.638 0.059,-0.742 -0.579,-1.677c-0.371,-0.549 -0.682,-1.024 -0.682,-1.069c0,-0.029 0.356,-0.653 0.786,-1.365c0.43,-0.712 1.172,-2.033 1.647,-2.909c0.475,-0.875 1.024,-1.795 1.217,-2.018c0.549,-0.653 0.46,-1.143 -0.282,-1.87c-1.128,-1.083 -2.597,-1.588 -2.894,-1.009c-0.074,0.149 -0.178,0.713 -0.237,1.247c-0.119,1.231 -0.49,2.389 -1.41,4.333c-1.395,2.998 -3.873,6.663 -6.084,9.052c-1.217,1.306 -1.306,1.677 -0.401,1.648c0.816,-0.03 2.36,-1.128 4.378,-3.132c0.92,-0.92 1.706,-1.676 1.736,-1.676c0.03,0 0.06,1.291 0.06,2.849c0,4.274 -0.312,7.197 -0.95,9.008c-0.342,0.92 -0.297,1.647 0.163,2.79c0.549,1.409 0.861,1.825 1.365,1.825c0.965,0 1.469,-1.484 1.588,-4.734c0.045,-1.276 0.104,-2.478 0.149,-2.671l0.074,-0.356l0.326,0.311c0.416,0.386 1.87,1.054 2.523,1.173c0.297,0.044 1.098,-0.06 1.9,-0.253c1.216,-0.282 3.591,-0.742 3.858,-0.742c0.044,0 0.119,1.885 0.163,4.2c0.074,3.829 0.104,4.274 0.386,4.897c0.475,1.069 1.098,0.846 1.632,-0.564c0.371,-0.979 0.772,-4.882 0.772,-7.509l0,-1.276l1.143,-0.104c0.623,-0.044 2.938,-0.089 5.149,-0.104c4.23,0 5.001,-0.104 5.105,-0.638c0.089,-0.415 -0.237,-0.92 -0.846,-1.321c-0.786,-0.519 -2.478,-1.038 -3.027,-0.949c-0.267,0.044 -1.039,0.193 -1.736,0.326c-1.247,0.223 -4.808,0.668 -5.447,0.668c-0.326,0 -0.341,-0.059 -0.341,-1.024c0,-1.172 -0.074,-1.128 1.529,-1.276c0.964,-0.089 1.024,-0.074 1.306,0.282c0.371,0.475 0.831,0.489 1.484,0.044c0.608,-0.4 0.845,-0.964 1.988,-4.704c0.475,-1.514 0.905,-2.805 0.98,-2.894c0.074,-0.074 0.133,-0.312 0.133,-0.534c0,-0.475 -0.326,-0.742 -1.736,-1.454c-0.965,-0.475 -1.499,-0.564 -2.211,-0.312c-0.238,0.074 -1.113,0.312 -1.944,0.504l-1.529,0.357l0,-0.95c0,-0.861 0.03,-0.95 0.312,-0.95c0.519,0 3.235,-0.593 3.858,-0.831c0.49,-0.208 0.579,-0.312 0.579,-0.668c0,-0.371 -0.119,-0.475 -0.772,-0.816c-0.935,-0.475 -1.647,-0.504 -2.894,-0.133c-0.504,0.163 -0.949,0.252 -0.994,0.222c-0.03,-0.044 0,-0.608 0.089,-1.261c0.089,-0.653 0.163,-1.484 0.178,-1.855c0.015,-0.653 0,-0.668 -0.712,-1.024c-0.861,-0.431 -2.716,-0.609 -3.013,-0.297Zm6.901,10.225c0.03,0.282 0.015,0.786 -0.044,1.128l-0.09,0.608l-0.845,-0.193c-0.624,-0.148 -1.054,-0.163 -1.648,-0.059c-0.445,0.089 -0.831,0.148 -0.86,0.148c-0.03,0 -0.045,-0.401 -0.045,-0.875l0,-0.876l1.083,-0.178c0.579,-0.089 1.173,-0.193 1.292,-0.223c0.118,-0.029 0.43,-0.029 0.667,-0.029c0.401,0.029 0.446,0.089 0.49,0.549Zm-6.381,1.291l-0.045,0.861l-0.667,0.089c-0.371,0.044 -0.98,0.133 -1.366,0.178l-0.712,0.104l0,-1.47l0.786,-0.222c1.024,-0.282 1.306,-0.342 1.707,-0.371c0.327,-0.015 0.341,0.029 0.297,0.831Zm5.906,2.716c-0.148,1.157 -0.089,1.113 -1.647,1.127l-1.41,0.015l0,-0.712c0,-0.801 -0.119,-0.757 2.004,-1.009c0.578,-0.074 1.068,-0.134 1.098,-0.149c0.029,0 0.015,0.327 -0.045,0.728Zm-5.876,0.934l0,0.817l-1.203,0.104c-0.652,0.059 -1.216,0.089 -1.231,0.059c-0.03,-0.03 -0.089,-0.43 -0.149,-0.876l-0.104,-0.816l1.351,-0.044l1.336,-0.045l0,0.801Z" style="fill:#f00;fill-rule:nonzero;"/></svg>

<?xml version="1.0" encoding="UTF-8" standalone="no"?>
<!DOCTYPE svg PUBLIC "-//W3C//DTD SVG 1.1//EN" "http://www.w3.org/Graphics/SVG/1.1/DTD/svg11.dtd">
<svg width="100%" height="100%" viewBox="0 0 57 57" version="1.1" xmlns="http://www.w3.org/2000/svg" xmlns:xlink="http://www.w3.org/1999/xlink" xml:space="preserve" xmlns:serif="http://www.serif.com/" style="fill-rule:evenodd;clip-rule:evenodd;">
    <g id="cir_1" transform="matrix(1.0198,0,0,1.03035,-0.0791987,-0.121408)">
        <circle cx="28.5" cy="28.5" r="24.5" style="fill:rgb(119,119,119);"/>
    </g>
    <circle id="cir_11" serif:id="cir_1" cx="28.5" cy="28.5" r="24.5" style="fill:rgb(250,250,250);"/>
    <circle id="cir_2" cx="28.5" cy="28.5" r="22.05" style="fill:rgb(250,250,250);stroke:rgb(255,0,0);stroke-width:2px;"/>
    <path d="M29.81,12.734C29.543,13.001 29.573,13.328 29.929,14.381C30.092,14.871 30.27,15.836 30.315,16.503C30.389,17.527 30.36,17.735 30.167,17.809C30.033,17.854 29.217,17.987 28.356,18.076C26.516,18.299 26.204,18.447 26.457,18.996C26.753,19.649 27.451,19.887 28.994,19.902L30.36,19.902L30.36,20.911C30.36,21.772 30.315,21.92 30.107,21.92C29.959,21.935 29.187,22.024 28.371,22.128C27.021,22.306 26.857,22.306 26.189,22.053C25.136,21.653 24.453,21.682 24.245,22.143C24.112,22.454 24.142,22.588 24.468,23.063C24.987,23.819 25.106,24.369 25.477,27.559C25.848,30.839 26.1,31.492 26.946,31.492C27.362,31.492 27.495,31.418 27.659,31.076C27.807,30.765 27.955,30.676 28.326,30.676C28.594,30.676 29.157,30.631 29.588,30.586L30.36,30.483L30.36,32.56L28.03,32.872C26.739,33.05 25.18,33.198 24.572,33.213C23.029,33.213 22.034,33.406 21.797,33.733C21.634,33.955 21.604,33.584 21.604,31.328C21.619,28.91 21.693,27.841 21.975,25.927C22.079,25.289 22.034,25.185 21.396,24.25C21.025,23.701 20.714,23.226 20.714,23.181C20.714,23.152 21.07,22.528 21.5,21.816C21.93,21.104 22.672,19.783 23.147,18.907C23.622,18.032 24.171,17.112 24.364,16.889C24.913,16.236 24.824,15.746 24.082,15.019C22.954,13.936 21.485,13.431 21.188,14.01C21.114,14.159 21.01,14.723 20.951,15.257C20.832,16.488 20.461,17.646 19.541,19.59C18.146,22.588 15.668,26.253 13.457,28.642C12.24,29.948 12.151,30.319 13.056,30.29C13.872,30.26 15.416,29.162 17.434,27.158C18.354,26.238 19.14,25.482 19.17,25.482C19.2,25.482 19.23,26.773 19.23,28.331C19.23,32.605 18.918,35.528 18.28,37.339C17.938,38.259 17.983,38.986 18.443,40.129C18.992,41.538 19.304,41.954 19.808,41.954C20.773,41.954 21.277,40.47 21.396,37.22C21.441,35.944 21.5,34.742 21.545,34.549L21.619,34.193L21.945,34.504C22.361,34.89 23.815,35.558 24.468,35.677C24.765,35.721 25.566,35.617 26.368,35.424C27.584,35.142 29.959,34.682 30.226,34.682C30.27,34.682 30.345,36.567 30.389,38.882C30.463,42.711 30.493,43.156 30.775,43.779C31.25,44.848 31.873,44.625 32.407,43.215C32.778,42.236 33.179,38.333 33.179,35.706L33.179,34.43L34.322,34.326C34.945,34.282 37.26,34.237 39.471,34.222C43.701,34.222 44.472,34.118 44.576,33.584C44.665,33.169 44.339,32.664 43.73,32.263C42.944,31.744 41.252,31.225 40.703,31.314C40.436,31.358 39.664,31.507 38.967,31.64C37.72,31.863 34.159,32.308 33.52,32.308C33.194,32.308 33.179,32.249 33.179,31.284C33.179,30.112 33.105,30.156 34.708,30.008C35.672,29.919 35.732,29.934 36.014,30.29C36.385,30.765 36.845,30.779 37.498,30.334C38.106,29.934 38.343,29.37 39.486,25.63C39.961,24.116 40.391,22.825 40.466,22.736C40.54,22.662 40.599,22.424 40.599,22.202C40.599,21.727 40.273,21.46 38.863,20.748C37.898,20.273 37.364,20.184 36.652,20.436C36.414,20.51 35.539,20.748 34.708,20.94L33.179,21.297L33.179,20.347C33.179,19.486 33.209,19.397 33.491,19.397C34.01,19.397 36.726,18.804 37.349,18.566C37.839,18.358 37.928,18.254 37.928,17.898C37.928,17.527 37.809,17.423 37.156,17.082C36.221,16.607 35.509,16.578 34.262,16.949C33.758,17.112 33.313,17.201 33.268,17.171C33.238,17.127 33.268,16.563 33.357,15.91C33.446,15.257 33.52,14.426 33.535,14.055C33.55,13.402 33.535,13.387 32.823,13.031C31.962,12.6 30.107,12.422 29.81,12.734ZM36.711,22.959C36.741,23.241 36.726,23.745 36.667,24.087L36.577,24.695L35.732,24.502C35.108,24.354 34.678,24.339 34.084,24.443C33.639,24.532 33.253,24.591 33.224,24.591C33.194,24.591 33.179,24.19 33.179,23.716L33.179,22.84L34.262,22.662C34.841,22.573 35.435,22.469 35.554,22.439C35.672,22.41 35.984,22.41 36.221,22.41C36.622,22.439 36.667,22.499 36.711,22.959ZM30.33,24.25L30.285,25.111L29.618,25.2C29.247,25.244 28.638,25.333 28.252,25.378L27.54,25.482L27.54,24.012L28.326,23.79C29.35,23.508 29.632,23.448 30.033,23.419C30.36,23.404 30.374,23.448 30.33,24.25ZM36.236,26.966C36.088,28.123 36.147,28.079 34.589,28.093L33.179,28.108L33.179,27.396C33.179,26.595 33.06,26.639 35.183,26.387C35.761,26.313 36.251,26.253 36.281,26.238C36.31,26.238 36.296,26.565 36.236,26.966ZM30.36,27.9L30.36,28.717L29.157,28.821C28.505,28.88 27.941,28.91 27.926,28.88C27.896,28.85 27.837,28.45 27.777,28.004L27.673,27.188L29.024,27.144L30.36,27.099L30.36,27.9Z" style="fill:rgb(255,0,0);fill-rule:nonzero;"/>
</svg>
